X: 10903
Q: "Allegro."
M: 6/8
L: 1/8
K: D
cd |\
(fe)B Bcd | (fe)c A{c}BA | Ade fed | cBA a(cd) |\
(fe)B Bcd | fec A{c}BA | Ade fed | (ag)e cBA !segno!|]


